X: 151
T: Song Concerning White Butterfly
C: Teton Sioux band 1911-1914
N: Derived from sioux147.krn
O: South Dakota, U.S.A.
N: Teton Sioux Music by Frances Densmore, 1918
Z: transcribed to **kern format by Craig Sapp
L: 1/8
M: 3/4
Q: 1/4=58
K: E clef=treble
%%linebreak <none>
G/ [I:setbarnb 1]| 
G2E2E3/ G/ | 
G2A2G2 ||  
[M:2/4]A G G E ||  
[M:3/4]D DD2D2 ||  
[M:2/4]^B, DC2 | 
A,7/C/ | 
C2A, A, | 
A,4 | 
A,4- | 
A,4- | 
A,7/G/ ||  
[M:3/4]G2E2-E3/ G/ ||  
[M:2/4]G> G A3/ A/ | 
A2(A3/ G/) | 
G2A3/ G/ | 
(G> E)E2 | 
D2E3/ E/ | 
E2(E3/ D/) | 
D2E3/ E/ | 
E2D D | 
E< DC2[K:clef=bass] ||  
[M:3/4]C2G,> C C C | 
D2D2E D/ D/ ||  
[M:2/4]C2(3D C C ||  
[M:3/4]G,2G,4 ||  
[M:2/4]G,2G,3/ G,/ | 
G,4 |]  



